X:1
T:Title
%%score { ( 1 3 5 ) | ( 2 4 6 7 ) }
L:1/8
M:4/4
K:G
V:1 treble nm="Grand Piano"
V:3 treble 
V:5 treble 
V:2 bass 
V:4 bass 
V:6 bass 
V:7 bass 
V:1
 z4 z2[Q:1/4=100] [GB]2 | [Bd]>[Ac] [GB]2- [GB][FA][GB][Ac] | [Bd]4 z4 | %3
 A>[^GB] [Ac]2- [Ac][ce][Bd][Ac] |[M:9/8] [GB]3 [Ac]/B/ [FA]2- [FA] [GB]2 | %5
[M:4/4] [Bd]>[Ac] [GB]2- [GB][FA][GB][Ac] |[M:3/4] [Bd]4 z2 |[M:1/4] [GB]2 | %8
[M:4/4] [FA]>[Ad] [^cf]2- [cf][ce][AB][Ac] |[M:25/32] d-d/4-d-d/4- d3- d3/4 | %10
[M:5/16] d3/4 z/4 z/ z |[M:4/4] d4- d3/2-d/4 z/4 z2 | d4- d3/2-d/4 z/4 z2 | %13
 A4- A3/2-A/4[K:treble] z/4 z2 | B4- B3/2-B/4 z/4 z2 | d4- d3/2-d/4 z/4 z2 | %16
[M:35/32] e3/2-e/4- e4- e/4 .[eg]2 z3/4 |[M:4/4] [Bd]3 [Bd] [Ac]2 [Ac]2 |[M:3/4] [GB]6[K:bass] |] %19
V:2
 z4 z2 [G,,D,]2 | [G,,G,]>[G,,G,] [G,,D,]2- [G,,D,][C,D,][B,,D,][A,,D,] | %2
 [G,,G,]G,,G,,G,, [G,,D,]2 [G,,D,]2 | [C,E,]>[B,,E,] [A,,E,]2- [A,,E,][A,,E,][B,,G,][C,E,] | %4
[M:9/8] D,D,D, z/ G/ D,2- D, [G,,D,]2 | %5
[M:4/4] [G,,G,]>[G,,G,] [G,,D,]2- [G,,D,][C,D,][B,,D,][A,,D,] |[M:3/4] [G,,G,]G,, G,,G,, [G,,D,]2 | %7
[M:1/4] [G,,D,]2 |[M:4/4] [A,,D,]>[A,,F,] [A,,A,]2- [A,,A,][A,,A,][A,,A,][A,,G,] |[M:25/32] z25/4 | %10
[M:5/16] B3/4[K:treble] z/4 z/ z |[M:4/4][K:bass] B4- B3/2-B/4[K:treble] z/4 z2 | %12
 B4- B3/2-B/4[K:treble] z/4 z2 | (9:8:8F2- [C,F-]2 [B,,F-]/ [A,,F]3/2[K:treble]A/G/-G3/2F/ | %14
 G4- G3/2-G/4[K:treble] z/4 z2 | B4- B3/2-B/4[K:treble] z/4 z2 | %16
[M:35/32][K:bass] c3/2-c/4- c4- c/ z2 z/ |[M:4/4] [D,G,]3 [D,G,] [D,F,]2 [D,F,]2 | %18
[M:3/4] G,2 z2 z2 |] %19
V:3
 x8 | x8 | z G,G,G, [GB]2 [GB]2 | x8 |[M:9/8] x9 |[M:4/4] x8 |[M:3/4] z G, G,G, [GB]2 |[M:1/4] x2 | %8
[M:4/4] x8 |[M:25/32] z z/4 z z/4 z3/2 c2- c/4- |[M:5/16] c/4 z/4 B/-B-B/4 z/4 | %11
[M:4/4] z4 (5:4:5G,2 d/ B/-B3/2c/ | z4 (5:4:5G,2 d/ c/-c3/2B/ | %13
 z4 (5:4:5D,2[K:treble] c/ B/-B3/2A/ | z4 (5:4:5G,2 d/ B/-B3/2c/ | z4 (5:4:5G,2 B/ c/-c3/2d/ | %16
[M:35/32] (3:2:4z3/2 z/4 G,3/4-G,/8- G,2 z4 z/4 [ce]3/4 |[M:4/4] x8 | %18
[M:3/4] z z/[K:bass] D,/ E,>F, G,2 |] %19
V:4
 x8 | x8 | x8 | x8 |[M:9/8] z3 .D,3 z3 |[M:4/4] x8 |[M:3/4] x6 |[M:1/4] x2 |[M:4/4] x8 | %9
[M:25/32] z z/4 z z/4 z3/2 A,2- A,/4- |[M:5/16] A,/4 z/4[K:treble] G/-G-G/4 z/4 | %11
[M:4/4][K:bass] z4 (5:4:5G,,2[K:treble] B/ G/-G3/2A/ | z4 (5:4:5G,,2[K:treble] B/ A/-A3/2G/ | %13
 x5[K:treble] x171/64 | z4 (5:4:5G,,2[K:treble] B/ G/-G3/2A/ | %15
 z4 (5:4:5G,,2[K:treble] G/ A/-A3/2B/ | %16
[M:35/32][K:bass] (3:2:4z3/2 z/4 C,3/4-C,/8- C,2 z2 z/4 [C,G,]<G,[B,,G,]3/4 |[M:4/4] x8 | %18
[M:3/4] G,,6 |] %19
V:5
 x8 | x8 | x8 | x8 |[M:9/8] x9 |[M:4/4] x8 |[M:3/4] x6 |[M:1/4] x2 |[M:4/4] x8 | %9
[M:25/32] A2 B2 z2 z/4 |[M:5/16] z/ z/ z c/ |[M:4/4] (5:4:5z2 D,/ E,/-E,3/2F,/ z4 | %12
 (5:4:5z2 D,/ E,/-E,3/2F,/ z4 | (5:4:5z2 D,/ D,/-D,3/2D,/ z4[K:treble] | %14
 (5:4:5z2 D,/ E,/-E,3/2F,/ z4 | (5:4:5z2 D,/ E,/-E,3/2F,/ z4 | %16
[M:35/32] z2 G,>G, G,2- G,/4 z/4 [df]3/2-[df]/4 z/ |[M:4/4] x8 |[M:3/4] x3/2[K:bass] x9/2 |] %19
V:6
 x8 | x8 | x8 | x8 |[M:9/8] x9 |[M:4/4] x8 |[M:3/4] x6 |[M:1/4] x2 |[M:4/4] x8 | %9
[M:25/32] F,2 G,2 z2 z/4 |[M:5/16] z/[K:treble] z/ z A/ | %11
[M:4/4][K:bass] (5:4:5z2 G,,/ G,,/-G,,3/2G,,/ z4[K:treble] | %12
 (5:4:5z2 G,,/ G,,/-G,,3/2G,,/ z4[K:treble] | x5[K:treble] x171/64 | %14
 (5:4:5z2 G,,/ G,,/-G,,3/2G,,/ z4[K:treble] | (5:4:5z2 G,,/ G,,/-G,,3/2G,,/ z4[K:treble] | %16
[M:35/32][K:bass] z2 E,3/2-E,/4 z/4 C,2- C,/4 z/4 C,3/2-C,/4 z/ |[M:4/4] x8 |[M:3/4] x6 |] %19
V:7
 x8 | x8 | x8 | x8 |[M:9/8] x9 |[M:4/4] x8 |[M:3/4] x6 |[M:1/4] x2 |[M:4/4] x8 | %9
[M:25/32] D,-D,/4-D,-D,/4- D,3- D,3/4- |[M:5/16] D,/4 z/4[K:treble] z/ z/ z | %11
[M:4/4][K:bass] x28/5[K:treble] x12/5 | x28/5[K:treble] x12/5 | x5[K:treble] x171/64 | %14
 x28/5[K:treble] x12/5 | x28/5[K:treble] x12/5 |[M:35/32][K:bass] x35/4 |[M:4/4] x8 |[M:3/4] x6 |] %19

